X: 1
T: The Sunshine
R: hornpipe
M: 4/4
L: 1/8
K: Amaj
cd|(3eae (3cec (3Aca ED|CEAc ecAc|(3dfd (3cec (3BdB (3AcA|GBFB E2cd|
eace AcED|CEAc ecAc|(3dfd (3cec (3BdB (3GBG|Aaec A2:|
|:Bc|dBGB EGBc|dBGB d2cd|ec (3AcA EAcd|ec (3Ace a2ga|
fdBd (3fed (3cBA|(3GAB (3AGF E2cd|eafd cABG|Aaec A2:||


Tune 1362	Setting 14714

